ui/assets/img/codemonitoring-search-light.svg

<svg width="89" height="47" viewBox="0 0 89 47" fill="none" xmlns="http://www.w3.org/2000/svg">
<rect y="2" width="54" height="8" rx="4" fill="#CAD2E2"/>
<rect x="57" y="2" width="32" height="8" rx="4" fill="#CAD2E2"/>
<rect x="9.99792" y="15" width="14" height="8" rx="4" fill="#CAD2E2"/>
<rect x="29" y="14" width="46" height="8" rx="4" fill="#94D82D"/>
<rect x="61" y="14" width="14" height="8" rx="4" fill="#CAD2E2"/>
<rect x="29" y="14" width="14" height="8" rx="4" fill="#CAD2E2"/>
<rect x="11" y="28" width="37" height="8" rx="4" fill="#CAD2E2"/>
<rect y="38" width="11" height="8" rx="4" fill="#CAD2E2"/>
<path d="M52.6042 32.3333C55.4058 32.3332 58.1287 31.4782 60.4167 29.9V30.3542V30.7684L60.7096 31.0613L70.5012 40.8529L71.2083 41.5601L71.9154 40.8529L74.8529 37.9154L75.5601 37.2083L74.8529 36.5012L65.0613 26.7096L64.7684 26.4167H64.3542H63.8984C65.4296 24.1952 66.3333 21.4995 66.3333 18.6042C66.3333 14.963 64.8869 11.4709 62.3122 8.89618C59.7374 6.32146 56.2454 4.875 52.6042 4.875C48.963 4.875 45.4709 6.32146 42.8962 8.89618C40.3215 11.4709 38.875 14.963 38.875 18.6042C38.875 22.2454 40.3215 25.7374 42.8962 28.3122C45.4709 30.8869 48.963 32.3333 52.6042 32.3333H52.6042ZM44.7917 18.6042C44.7917 14.2606 48.2606 10.7917 52.6042 10.7917C56.9477 10.7917 60.4167 14.2606 60.4167 18.6042C60.4167 22.9477 56.9477 26.4167 52.6042 26.4167C48.2606 26.4167 44.7917 22.9477 44.7917 18.6042Z" fill="#A305E1" stroke="white" stroke-width="2"/>
</svg>

<svg width="89" height="47" viewBox="0 0 89 47" fill="none" xmlns="http://www.w3.org/2000/svg"><rect y="2" width="54" height="8" rx="4" fill="#CAD2E2"/><rect x="57" y="2" width="32" height="8" rx="4" fill="#CAD2E2"/><rect x="9.998" y="15" width="14" height="8" rx="4" fill="#CAD2E2"/><rect x="29" y="14" width="46" height="8" rx="4" fill="#94D82D"/><rect x="61" y="14" width="14" height="8" rx="4" fill="#CAD2E2"/><rect x="29" y="14" width="14" height="8" rx="4" fill="#CAD2E2"/><rect x="11" y="28" width="37" height="8" rx="4" fill="#CAD2E2"/><rect y="38" width="11" height="8" rx="4" fill="#CAD2E2"/><path d="M52.604 32.333a13.76 13.76 0 0 0 7.813-2.433v.868l.293.293 9.791 9.792.707.707.707-.707 2.938-2.938.707-.707-.707-.707-9.792-9.791-.293-.293h-.87A13.736 13.736 0 0 0 52.604 4.875a13.73 13.73 0 1 0 0 27.458Zm-7.812-13.729a7.776 7.776 0 0 1 7.812-7.812 7.776 7.776 0 0 1 7.813 7.812 7.776 7.776 0 0 1-7.813 7.813 7.776 7.776 0 0 1-7.812-7.813Z" fill="#A305E1" stroke="#fff" stroke-width="2"/></svg>
